assets/icons/country-flags/VA.svg

<svg width="24" height="24" viewBox="0 0 24 24" fill="none" xmlns="http://www.w3.org/2000/svg">
<g clip-path="url(#clip0_2848_9941)">
<path d="M11.9998 0C18.6272 0 23.9998 5.37263 23.9998 12C23.9998 18.6274 18.6272 24 11.9998 24C11.9998 23.4783 10.4346 12 10.4346 12L11.9998 0Z" fill="white"/>
<path d="M12 24C5.37263 24 0 18.6274 0 12C0 5.37263 5.37263 0 12 0" fill="#FFD293"/>
<path d="M16.5952 10.4424L18.8504 13.4258C18.4951 13.9638 18.497 14.6887 18.9079 15.2323C19.4292 15.9219 20.4108 16.0584 21.1004 15.5371C21.79 15.0159 21.9265 14.0342 21.4051 13.3447C20.9943 12.8011 20.2973 12.6016 19.6828 12.7966L16.1681 8.14697L15.3357 8.77622L14.0869 9.72L15.3454 11.3848L16.5952 10.4424ZM19.8419 13.8722C20.0718 13.6984 20.399 13.744 20.5728 13.9738C20.7465 14.2036 20.7011 14.5309 20.4712 14.7047C20.2414 14.8784 19.9141 14.833 19.7404 14.6031C19.5666 14.3732 19.6121 14.046 19.8419 13.8722V13.8722Z" fill="#A9B9C0"/>
<path d="M20.4633 11.3849L21.7218 9.7201L20.4731 8.77622L19.6407 8.14697L16.126 12.7966C15.5115 12.6016 14.8145 12.8011 14.4036 13.3447C13.8823 14.0343 14.0188 15.0159 14.7084 15.5371C15.398 16.0584 16.3796 15.9219 16.9008 15.2323C17.3117 14.6887 17.3136 13.9638 16.9583 13.4258L19.2135 10.4424L20.4633 11.3849ZM16.0684 14.6032C15.8947 14.8331 15.5675 14.8785 15.3376 14.7048C15.1077 14.531 15.0623 14.2037 15.236 13.9739C15.4098 13.7441 15.737 13.6985 15.9669 13.8723C16.1967 14.0461 16.2422 14.3733 16.0684 14.6032V14.6032Z" fill="#FFD293"/>
</g>
<defs>
<clipPath id="clip0_2848_9941">
<rect width="24" height="24" fill="white"/>
</clipPath>
</defs>
</svg>

<svg viewBox="0 0 24 24" fill="none" xmlns="http://www.w3.org/2000/svg"><g clip-path="url(#a)"><path d="M12 0c6.627 0 12 5.373 12 12s-5.373 12-12 12c0-.522-1.565-12-1.565-12L12 0Z" fill="#fff"/><path d="M12 24C5.373 24 0 18.627 0 12S5.373 0 12 0" fill="#FFD293"/><path d="m16.595 10.442 2.255 2.984a1.566 1.566 0 1 0 .833-.63l-3.515-4.649-.832.63-1.25.943 1.26 1.665 1.25-.943Zm3.247 3.43a.522.522 0 1 1 .63.833.522.522 0 0 1-.63-.833Z" fill="#A9B9C0"/><path d="m20.463 11.385 1.259-1.665-1.249-.944-.832-.629-3.515 4.65a1.566 1.566 0 1 0 .832.629l2.256-2.984 1.25.943Zm-4.395 3.218a.522.522 0 1 1-.832-.629.522.522 0 0 1 .832.63Z" fill="#FFD293"/></g><defs><clipPath id="a"><rect fill="#fff"/></clipPath></defs></svg>
